projects/vfh1/img/icons-service/star.svg

<svg  viewBox="0 0 33 28" fill="none" xmlns="http://www.w3.org/2000/svg">
<path d="M16.4998 20.0797L11.8949 22.8315C11.6915 22.9599 11.4788 23.0149 11.2569 22.9966C11.0349 22.9782 10.8408 22.9048 10.6743 22.7764C10.5079 22.648 10.3784 22.4877 10.286 22.2954C10.1935 22.1024 10.175 21.8867 10.2305 21.6482L11.451 16.4474L7.37322 12.9526C7.18828 12.7875 7.07288 12.5993 7.02702 12.3879C6.98042 12.1773 6.9941 11.9711 7.06807 11.7693C7.14205 11.5676 7.25301 11.4024 7.40096 11.274C7.54891 11.1456 7.75234 11.0631 8.01125 11.0264L13.3929 10.5586L15.4734 5.66042C15.5659 5.44028 15.7094 5.27518 15.9039 5.16511C16.0977 5.05504 16.2964 5 16.4998 5C16.7032 5 16.9022 5.05504 17.0968 5.16511C17.2906 5.27518 17.4337 5.44028 17.5262 5.66042L19.6067 10.5586L24.9883 11.0264C25.2472 11.0631 25.4507 11.1456 25.5986 11.274C25.7466 11.4024 25.8575 11.5676 25.9315 11.7693C26.0055 11.9711 26.0195 12.1773 25.9737 12.3879C25.9271 12.5993 25.8113 12.7875 25.6264 12.9526L21.5485 16.4474L22.7691 21.6482C22.8246 21.8867 22.8061 22.1024 22.7136 22.2954C22.6212 22.4877 22.4917 22.648 22.3253 22.7764C22.1588 22.9048 21.9646 22.9782 21.7427 22.9966C21.5208 23.0149 21.3081 22.9599 21.1047 22.8315L16.4998 20.0797Z" fill="#42474D"/>
</svg>

<svg viewBox="0 0 33 28" fill="none" xmlns="http://www.w3.org/2000/svg"><path d="M16.5 20.08l-4.605 2.752a1.014 1.014 0 01-.638.165 1.078 1.078 0 01-.583-.22 1.322 1.322 0 01-.388-.482.956.956 0 01-.056-.647l1.221-5.2-4.078-3.495a1.05 1.05 0 01-.346-.565 1.082 1.082 0 01.041-.619 1.18 1.18 0 01.333-.495c.148-.128.351-.21.61-.248l5.382-.467 2.08-4.899a.99.99 0 01.43-.495A1.2 1.2 0 0116.5 5c.203 0 .402.055.597.165.194.11.337.275.43.495l2.08 4.899 5.381.467c.26.037.463.12.61.248.149.128.26.294.334.495a1.057 1.057 0 01-.305 1.183l-4.078 3.495 1.22 5.201a.956.956 0 01-.055.647 1.322 1.322 0 01-.389.481c-.166.129-.36.202-.582.22a1.014 1.014 0 01-.638-.165L16.5 20.08z" fill="#42474D"/></svg>
